public/assets/github.svg

<svg width="50" height="50" viewBox="0 0 50 50" xmlns="http://www.w3.org/2000/svg"><path fill="#4acd8d" fill-rule="evenodd" d="M24.998 2.083c-12.653 0-22.915 10.26-22.915 22.918 0 10.125 6.566 18.713 15.672 21.744 1.147.211 1.565-.497 1.565-1.105 0-.543-.02-1.985-.031-3.897-6.374 1.385-7.719-3.072-7.719-3.072-1.043-2.648-2.545-3.353-2.545-3.353-2.081-1.42.157-1.392.157-1.392 2.3.161 3.51 2.362 3.51 2.362 2.044 3.501 5.365 2.49 6.67 1.903.208-1.48.801-2.49 1.455-3.062-5.089-.579-10.439-2.545-10.439-11.327 0-2.501.893-4.548 2.359-6.149-.236-.58-1.022-2.911.225-6.065 0 0 1.924-.616 6.302 2.349 1.827-.509 3.788-.762 5.737-.772 1.947.01 3.906.263 5.737.772 4.375-2.965 6.295-2.349 6.295-2.349 1.251 3.154.465 5.485.23 6.065 1.468 1.601 2.355 3.648 2.355 6.149 0 8.804-5.359 10.741-10.463 11.308.822.708 1.555 2.106 1.555 4.245 0 3.062-.028 5.534-.028 6.285 0 .614.413 1.327 1.575 1.103 9.1-3.037 15.66-11.62 15.66-21.742 0-12.658-10.262-22.918-22.919-22.918"/></svg>

<svg width="50" height="50" viewBox="0 0 50 50" fill="none" xmlns="http://www.w3.org/2000/svg">
<path fill-rule="evenodd" clip-rule="evenodd" d="M24.998 2.08299C12.345 2.08299 2.083 12.343 2.083 25.001C2.083 35.126 8.649 43.714 17.755 46.745C18.902 46.956 19.32 46.248 19.32 45.64C19.32 45.097 19.3 43.655 19.289 41.743C12.915 43.128 11.57 38.671 11.57 38.671C10.527 36.023 9.025 35.318 9.025 35.318C6.944 33.898 9.182 33.926 9.182 33.926C11.482 34.087 12.692 36.288 12.692 36.288C14.736 39.789 18.057 38.778 19.362 38.191C19.57 36.711 20.163 35.701 20.817 35.129C15.728 34.55 10.378 32.584 10.378 23.802C10.378 21.301 11.271 19.254 12.737 17.653C12.501 17.073 11.715 14.742 12.962 11.588C12.962 11.588 14.886 10.972 19.264 13.937C21.091 13.428 23.052 13.175 25.001 13.165C26.948 13.175 28.907 13.428 30.738 13.937C35.113 10.972 37.033 11.588 37.033 11.588C38.284 14.742 37.498 17.073 37.263 17.653C38.731 19.254 39.618 21.301 39.618 23.802C39.618 32.606 34.259 34.543 29.155 35.11C29.977 35.818 30.71 37.216 30.71 39.355C30.71 42.417 30.682 44.889 30.682 45.64C30.682 46.254 31.095 46.967 32.257 46.743C41.357 43.706 47.917 35.123 47.917 25.001C47.917 12.343 37.655 2.08299 24.998 2.08299" fill="#8B5CF6"/>
</svg>
